icons/ArrowUp.svg

<svg width="24" height="24" viewBox="0 0 24 24" fill="none" xmlns="http://www.w3.org/2000/svg">
<path fill-rule="evenodd" clip-rule="evenodd" d="M11.4697,4.46967c0.2929,-0.29289 0.7677,-0.29289 1.0606,0l6,6.00003c0.2929,0.2929 0.2929,0.7677 0,1.0606c-0.2929,0.2929 -0.7677,0.2929 -1.0606,0l-4.7197,-4.71964v12.18934c0,0.4142 -0.3358,0.75 -0.75,0.75c-0.4142,0 -0.75,-0.3358 -0.75,-0.75v-12.18934l-4.71967,4.71964c-0.29289,0.2929 -0.76777,0.2929 -1.06066,0c-0.29289,-0.2929 -0.29289,-0.7677 0,-1.0606z" fill="#002B51"/>
</svg>

<svg width="24" height="24" viewBox="0 0 24 24" fill="none" xmlns="http://www.w3.org/2000/svg">
<path fill-rule="evenodd" clip-rule="evenodd" d="M11.4697 4.46967C11.7626 4.17678 12.2374 4.17678 12.5303 4.46967L18.5303 10.4697C18.8232 10.7626 18.8232 11.2374 18.5303 11.5303C18.2374 11.8232 17.7626 11.8232 17.4697 11.5303L12.75 6.81066V19C12.75 19.4142 12.4142 19.75 12 19.75C11.5858 19.75 11.25 19.4142 11.25 19V6.81066L6.53033 11.5303C6.23744 11.8232 5.76256 11.8232 5.46967 11.5303C5.17678 11.2374 5.17678 10.7626 5.46967 10.4697L11.4697 4.46967Z" fill="#002B51"/>
</svg>
